X: 28902
T: N'Fheadar
R: reel
M: 4/4
K: Gmajor
ABcA ddcA|ddcA AGG2|ABcA ddcA|ddfa gedc|
ABcA ddcA|ddcA AGG2|bgfa gedc|AdcA G3d||
dfff dggg|decd ABcA|dfff dgge|(3fed cA G3d|
dfff dggg|decd ABcA|bgfa gedc|AdcA G4||

